X:95
T:Black Rogue, The
M:6/8
L:1/8
Q:120
R:Jig (Key of D)
K:Dmaj
d |: "A"cAA BAG | cAA A2d | cAA BAG | "D"AFD D2d |
cAA BAG | cAA AFD | "G"~G3 BAG |1 "D"AFD D2 d:|2 "D"AFD D2e |:
"D"~f3 "G"gfg | "D"afd "A"cBA | "D"~f3 "G"gfg | "D"afd dfg |
a2f "G"gfe | "D"fed efd | "A"cAA BAG | "D"AFD D2 :|]
